assets/img/icons_pokemon/psychic.svg

<svg width="256" height="256" viewBox="0 0 256 256" fill="none" xmlns="http://www.w3.org/2000/svg">
<g clip-path="url(#clip0_57_769)">
<path d="M128 256C198.692 256 256 198.692 256 128C256 57.3075 198.692 0 128 0C57.3075 0 0 57.3075 0 128C0 198.692 57.3075 256 128 256Z" fill="#E96C8C"/>
<path d="M197.45 99.7398C197.74 104.99 195.44 109.49 193.06 113.87C188.06 123.08 188.14 132.06 192.69 141.53C202.92 162.83 196.31 174.94 173.1 177.1C161.94 178.14 153.88 182.75 147.69 192.21C135.98 210.11 119.98 209.98 108.13 191.96C102.15 182.87 94.3699 178.23 83.5799 177.17C59.5099 174.81 53.0399 163.18 63.4399 141.25C67.7599 132.13 67.6599 123.55 63.2999 114.46C53.0899 93.1498 59.6799 81.0498 82.8899 78.8898C94.0399 77.8498 102.12 73.2398 108.3 63.7798C119.79 46.1998 136.13 45.8398 147.25 63.2398C154.34 74.3298 163.98 78.3098 176.38 79.2698C190.28 80.3498 197.55 88.0198 197.44 99.7498L197.45 99.7398Z" fill="white"/>
<path d="M174.57 154.66C153.79 156.48 139.12 164.62 128.2 181.56C116.65 164.89 102.2 156.35 82.4999 154.75C89.4899 136.88 91.2499 119.79 81.6499 101.75C101.55 99.42 116.62 91.39 128.05 74.79C139.35 91.09 153.79 99.63 173.49 101.23C166.55 119.11 164.72 136.19 174.57 154.65V154.66Z" fill="#E96C8D"/>
</g>
<defs>
<clipPath id="clip0_57_769">
<rect width="256" height="256" fill="white"/>
</clipPath>
</defs>
</svg>

<?xml version="1.0" encoding="UTF-8"?>
<svg id="Layer_1" data-name="Layer 1" xmlns="http://www.w3.org/2000/svg" viewBox="0 0 256 256">
  <defs>
    <style>
      .cls-1 {
        fill: #fff;
      }

      .cls-2 {
        fill: #e96c8c;
      }

      .cls-3 {
        fill: #e96c8d;
      }
    </style>
  </defs>
  <circle class="cls-2" cx="128" cy="128" r="128"/>
  <path class="cls-1" d="M197.45,99.74c.29,5.25-2.01,9.75-4.39,14.13-5,9.21-4.92,18.19-.37,27.66,10.23,21.3,3.62,33.41-19.59,35.57-11.16,1.04-19.22,5.65-25.41,15.11-11.71,17.9-27.71,17.77-39.56-.25-5.98-9.09-13.76-13.73-24.55-14.79-24.07-2.36-30.54-13.99-20.14-35.92,4.32-9.12,4.22-17.7-.14-26.79-10.21-21.31-3.62-33.41,19.59-35.57,11.15-1.04,19.23-5.65,25.41-15.11,11.49-17.58,27.83-17.94,38.95-.54,7.09,11.09,16.73,15.07,29.13,16.03,13.9,1.08,21.17,8.75,21.06,20.48Z"/>
  <path class="cls-3" d="M174.57,154.66c-20.78,1.82-35.45,9.96-46.37,26.9-11.55-16.67-26-25.21-45.7-26.81,6.99-17.87,8.75-34.96-.85-53,19.9-2.33,34.97-10.36,46.4-26.96,11.3,16.3,25.74,24.84,45.44,26.44-6.94,17.88-8.77,34.96,1.08,53.42Z"/>
</svg>
